X: 42477
T: Wexford Carol, The
R: waltz
M: 3/4
K: Gdorian
E2 A2 A ^G|A6|B2 ^c2 d2|e6|^c2 d2 ^c2|A2 E4|F2 G2 A2|G6|
E2 A2 A ^G|A6|B2 ^c2 d2|e6|^c2 d2 e2|^c2 A4|B2 A2 A2|A6|
A2 A2 g2|e2 d4|B2 =c2 d2|=c6|ed =c2 B2|A2 E4|F2 G2 A2|G6|
E2 A2 A ^G|A6|B2 ^c2 d2|e6|^c2 d2 e2|^c2 A4|B2 A2 A2|A6|

